X: 1133
T: An Bhean Cheile Nar Casadh Dhom
R: barndance
M: 4/4
K: Gmajor
(3DEF|:G2GA Bgfg|~e3g edBA|G2(3Bcd edBG|ABAG EGD2|
G3A Bgfg|~e3g edBA|G2BG AGED|1 EGGF G2(3DEF:|2 EGGF G2(3Bcd||
~g3b agfd|~e3g edBA|G2(3Bcd edBG|ABAG EGD2|
gaag agfd|~e3g edBA|(3Bcd ef g2fd|Beed egfa|
g2gb agfd|e2ge edBA|G2(3Bcd edBG|ABAG EGD2|
G2GA Bgfg|~e3g edBA|G2BA AGED|EGGF G2||

